public/images/clear.svg

<?xml version="1.0" encoding="UTF-8" standalone="no"?><!DOCTYPE svg PUBLIC "-//W3C//DTD SVG 1.1//EN" "http://www.w3.org/Graphics/SVG/1.1/DTD/svg11.dtd"><svg width="100%" height="100%" viewBox="0 0 17 20" version="1.1" xmlns="http://www.w3.org/2000/svg" xmlns:xlink="http://www.w3.org/1999/xlink" xml:space="preserve" style="fill-rule:evenodd;clip-rule:evenodd;stroke-linejoin:round;stroke-miterlimit:1.41421;"><path d="M16.009,4.998l0,14.998l-16.009,0l0,-19.996l11,0l5.009,4.998Zm-6.009,-3l-8,0l0,16l12,0l0,-11.998l-4,0l0,-4.002Z" style="fill:#1d1d1d;"/></svg>

<?xml version="1.0" encoding="UTF-8" standalone="no"?>
<!DOCTYPE svg PUBLIC "-//W3C//DTD SVG 1.1//EN" "http://www.w3.org/Graphics/SVG/1.1/DTD/svg11.dtd">
<svg width="100%" height="100%" viewBox="0 0 12 14" version="1.1" xmlns="http://www.w3.org/2000/svg" xmlns:xlink="http://www.w3.org/1999/xlink" xml:space="preserve" style="fill-rule:evenodd;clip-rule:evenodd;stroke-linejoin:round;stroke-miterlimit:1.41421;">
    <g transform="matrix(1,0,0,1,-32,-20.5083)">
        <g transform="matrix(1,0,0,1,-0.364111,0)">
            <g id="clear" transform="matrix(0.69917,0,0,0.69917,38.3071,27.5)">
                <g transform="matrix(1,0,0,1,-8.5,-10)">
                    <path d="M16.009,4.998L16.009,19.996L0,19.996L0,0L11,0L16.009,4.998ZM10,1.998L2,1.998L2,17.998L14,17.998L14,6L10,6L10,1.998L10,1.998Z" style="fill:rgb(57,70,78);"/>
                </g>
            </g>
        </g>
    </g>
</svg>
